fs/panel_left_16_regular.svg

<svg viewBox="0 0 16 16" fill="none" xmlns="http://www.w3.org/2000/svg" height="1em" width="1em">
  <path d="M4 3C2.89543 3 2 3.89543 2 5V11C2 12.1046 2.89543 13 4 13H12C13.1046 13 14 12.1046 14 11V5C14 3.89543 13.1046 3 12 3H4ZM3 5C3 4.44772 3.44772 4 4 4H6.00149L6.00148 12H4C3.44772 12 3 11.5523 3 11V5ZM7.00148 12L7.00149 4H12C12.5523 4 13 4.44772 13 5V11C13 11.5523 12.5523 12 12 12L7.00148 12Z" fill="#212121"/>
</svg>

<svg viewBox="0 0 16 16" fill="none" xmlns="http://www.w3.org/2000/svg" height="1em" width="1em">
  <path d="M4 3a2 2 0 0 0-2 2v6a2 2 0 0 0 2 2h8a2 2 0 0 0 2-2V5a2 2 0 0 0-2-2H4ZM3 5a1 1 0 0 1 1-1h2.001v8H4a1 1 0 0 1-1-1V5Zm4.001 7V4H12a1 1 0 0 1 1 1v6a1 1 0 0 1-1 1H7.001Z" fill="#212121"/>
</svg>
